!!!COM: Sousa, John Phillip
!!!CDT: 1854/11/05/-1932/04/08/
!!!OTL: The Invincible Eagle March
!!!ODT: 1901///
!!!ONB: Arrangement for keyboard
**kern	**kern	**dynam
*staff2	*staff1	*staff1/2
*Ipiano	*Ipiano	*Ipiano
*>[I,A,A1,A,A2,B,C,C1,C,C2]	*>[I,A,A1,A,A2,B,C,C1,C,C2]	*>[I,A,A1,A,A2,B,C,C1,C,C2]
*>norep[I,A,A2,B,C,C2]	*>norep[I,A,A2,B,C,C2]	*>norep[I,A,A2,B,C,C2]
*>I	*>I	*>I
*clefF4	*clefG2	*clefG2
*k[f#c#]	*k[f#c#]	*k[f#c#]
*D:	*D:	*D:
*M6/8	*M6/8	*M6/8
*MM180	*MM180	*MM180
=1-	=1-	=1-
4.DD/ 4.D/	4.dd\ 4.ff#\ 4.aa\ 4.ddd\	ff
4GG/ 4G/	4dd\ 4gg\ 4bb\	.
8BB'/	8b'\	.
=2	=2	=2
8D'/L	8dd'\L	.
8C#'/	8cc#'\	.
8D'/J	8dd'\J	.
4.BB'/	4b'\	.
.	8b\ 8bb\	.
=3	=3	=3
4.FF#/ 4.F#/	4.a\ 4.dd\ 4.aa\	.
4BB\ 4B\	4b\ 4dd\ 4ff#\	.
8F#'\	8ff#'\	.
=4	=4	=4
8A'\L	8aa'\L	.
8G#'\	8gg#'\	.
8A'\J	8aa'\J	.
4F#'\	4ff#'\	.
(8F#\	(8ff#\	.
=5	=5	=5
8G\L)	8gg\L)	<
8r	8r	.
(8G\J	(8gg\J	.
8F#\L)	8ff#\L)	.
8r	8r	.
(8F#\J	(8ff#\J	.
=6	=6	=6
8E\L)	8ee\L)	.
8r	8r	.
(8E\J	(8ee\J	.
8D\L)	8dd\L)	.
8r	8r	.
8D\J	8dd\J	.
=7	=7	=7
4AA/	4a\ 4aa\	.
8r	8r	.
4AAA/ 4AA/	4a\ 4cc#\ 4ee\ 4aa\	.
8r	8r	.
=8	=8	=8
2.r	4r	.
.	(8ff#\	<
.	4gg\	.
.	8gg#\	.
=9!|:	=9!|:	=9!|:
*>A	*>A	*>A
8D\L	4aa\	mf
8r	.	.
8F#\ 8A\J	8ff#\)	.
8AA\L	8ddd'\L	.
8r	8ccc#'\	.
8F#\ 8A\J	8bb'\J	.
=10	=10	=10
8DD/ 8D/L	8aa'\L	.
8r	8r	.
8F#/ 8A/J	8ff#'\J	.
8FF#/L	8dd'\L	.
8r	8r	.
8F#/ 8A/J	8ff#'\J	.
=11	=11	=11
(4AA/	2.g\ 2.cc#\ (2.ee\	.
8BB/	.	.
8C#/L	.	.
8BB/	.	.
8AA/J)	.	.
=12	=12	=12
8D\L	8f#\ 8a\ 8dd\L)	.
8r	8r	.
8F#\ 8A\J	8ff#\J	.
8AA\L	8dd\L	.
8r	8r	.
8F#\ 8A\J	8ff#\J	.
=13	=13	=13
(4GG/	2.dd\ 2.gg\ (2.bb\	.
8AA/	.	.
8BB/L	.	.
8AA/	.	.
8GG/J)	.	.
=14	=14	=14
8D\L	8dd\ 8ff#\ 8aa\L)	.
8r	8r	.
8F#\ 8A\J	8ff#\J	.
8AA\L	8dd\L	.
8r	8r	.
8F#\ 8A\J	8ff#\J	.
=15	=15	=15
(4AA/	2.g\ 2.cc#\ (2.ee\	.
8BB/	.	.
8C#/L	.	.
8BB/	.	.
8AA/J)	.	.
=16	=16	=16
*^	*	*
4D/	4D\	4f#/ 4a/ 4dd/)	.
(8d/	8r	8dd\ (8ff#\	.
4c#/	4r	4ee\ 4gg\	.
8B/)	8r	8ee#\ 8gg#\)	.
*v	*v	*	*
=17	=17	=17
8D\L	8aa'\L	.
8r	8gg'\	.
8F#\ 8A\J	8ff#'\J	.
8AA\L	8ddd'\L	.
8r	8ccc#'\	.
8F#\ 8A\J	8bb'\J	.
=18	=18	=18
8DD/ 8D/L	8aa'\L	.
8r	8r	.
8F#/ 8A/J	8ff#'\J	.
8FF#/L	8dd'\L	.
8r	8r	.
8F#/ 8A/J	8ff#'\J	.
=19	=19	=19
(4AA/	2.g\ 2.cc#\ (2.ee\	.
8BB/	.	.
8C#/L	.	.
8BB/	.	.
8AA/J)	.	.
=20	=20	=20
*^	*	*
4.r	8D\L	8f#\ 8a\ 8dd\L)	.
.	8r	8r	.
.	8F#\ 8A\J	8ff#\J	.
8BB/L	(4.BB\	8dd\L	.
8r	.	8r	.
8F#/ 8B/J	.	8ff#\J	.
=21	=21	=21	=21
8F#/L	4.F#\	8aa\L	.
8r	.	8r	.
8A/ 8d/J	.	8ff#\J	.
8Fn/L	4.Fn\)	8aa\L	.
8r	.	8r	.
8A/ 8d/J	.	8bb\J	.
*v	*v	*	*
=22	=22	=22
8E\L	8ccc#\L	.
8r	8bb\	.
8A\ 8c#\J	8aa\J	.
8E\L	8bb\L	.
8r	8r	.
8G#\ 8d\J	8bb\J	.
=23	=23	=23
4A\ 4c#\	4aa\	.
8r	8r	.
4AA\ 4A\	4a\ 4cc#\ 4ee\ 4aa\	.
8r	8r	.
=24	=24	=24
*>A1	*>A1	*>A1
2.r	4r	.
.	(8ff#\	<
.	4gg\	.
.	8gg#\)	.
=25:|!	=25:|!	=25:|!
*>A2	*>A2	*>A2
2.r	4r	.
.	8a\ (8aa\	f
.	4g#\ 4gg#\	.
.	8a\ 8aa\)	.
=26	=26	=26
*>B	*>B	*>B
(4.GG/ 4.G/	4.b\ 4.dd\ (4.bb\	f
4.FF#/ 4.F#/	4.a\ 4.dd\ 4.aa\	.
=27	=27	=27
4.EE/ 4.E/	4.cc#\ 4.gg\ 4.ccc#\	.
4.DD/) 4.D/	4.dd\ 4.ff#\ 4.ddd\)	.
=28	=28	=28
8DD/ 8D/L	8dd\	.
8r	8r	.
8F#/ 8A/J	8r	.
8AA\L	[4.a\ [4.ff#\	.
8r	.	.
8F#\ 8A\J	.	.
=29	=29	=29
8DD/ 8D/L	8a\] 8ff#\L]	.
8r	8dd\	.
8F#/ 8A/J	8cc#\J	.
8AA\L	8dd\L	.
8r	8ee\	.
8F#\ 8A\J	8ff#\J	.
=30	=30	=30
8C#\L	8ee\	.
8r	8r	.
8G\ 8A\J	8r	.
8AA\L	[4.cc#\ [4.gg\	.
8r	.	.
8G\ 8A\J	.	.
=31	=31	=31
8E\L	8cc#\] 8gg\L]	.
8r	8ee\	.
8G\ 8A\J	8dd#\J	.
8AA\L	8ee\L	<
8r	8ff#\	.
8G\ 8A\J	8gg\J	.
=32	=32	=32
8D\L	4ff#\	.
8r	.	.
8F#\ 8A\J	8r	.
!	!eee#q/	!.
8AA\L	4fff#\	.
8r	.	.
8F#\ 8A\J	8r	.
=33	=33	=33
8D\L	4aa\	.
8r	.	.
8F#\ 8A\J	8a\ (8aa\	.
8AA\L	4g#\ 4gg#\	.
8r	.	.
8F#\ 8A\J	8a\ 8aa\)	.
=34	=34	=34
(4.GG/ 4.G/	4.b\ 4.dd\ (4.bb\	.
4.FF#/ 4.F#/	4.a\ 4.dd\ 4.aa\	.
=35	=35	=35
4.EE/ 4.E/	4.cc#\ 4.gg\ 4.ccc#\	.
4.DD/) 4.D/	4.dd\ 4.ff#\ 4.ddd\)	.
=36	=36	=36
8DD/ 8D/L	8dd\	.
8r	8r	.
8F#/ 8A/J	8r	.
8AA\L	[4.a\ [4.ff#\	.
8r	.	.
8F#\ 8A\J	.	.
=37	=37	=37
*^	*	*
4.r	8D\L	8a\] 8ff#\L]	.
.	8r	8dd\	.
.	8F#\ 8A\J	8cc#\J	.
8Cn/L	4.Cn\	8dd\L	.
8r	.	8ee\	.
8F#/ 8A/J	.	8ff#\J	.
*v	*v	*	*
=38	=38	=38
8BB\L	8gg\	.
8r	8r	.
8G\ 8B\J	8r	.
8GG\L	4.b\ 4.gg\ 4.bb\	.
8r	.	.
8G\ 8B\J	.	.
=39	=39	=39
8G\L	8bb'\L	.
8r	8aa'\	.
8B\ 8e\J	8gg'\J	.
8E\L	8bb-'\L	.
8r	8aa'\	.
8G\ 8B-\ 8e\J	8gg'\J	.
=40	=40	=40
8AA\L	8ff#\L	.
8r	8ee\	.
8F#\ 8A\ 8d\J	8dd\J	.
8AA\L	8ee\L	.
8r	8r	.
8G\ 8A\J	8ee\J	.
=41	=41	=41
8D\ 8F#\ 8A\	8dd\	.
8r	8r	.
8r	8a\ (8aa\	.
4r	4g#\ 4gg#\	.
8r	8a\ 8aa\)	.
=42	=42	=42
(4.GG/ 4.G/	4.b\ 4.dd\ (4.bb\	f
4.FF#/ 4.F#/	4.a\ 4.dd\ 4.aa\	.
=43	=43	=43
4.EE/ 4.E/	4.cc#\ 4.gg\ 4.ccc#\	.
4.DD/) 4.D/	4.dd\ 4.ff#\ 4.ddd\)	.
=44	=44	=44
8DD/ 8D/L	8dd\	.
8r	8r	.
8F#/ 8A/J	8r	.
8AA\L	[4.a\ [4.ff#\	.
8r	.	.
8F#\ 8A\J	.	.
=45	=45	=45
8D\L	8a\] 8ff#\L]	.
8r	8dd\	.
8F#\ 8A\J	8cc#\J	.
8AA\L	8dd\L	.
8r	8ee\	.
8F#\ 8A\J	8ff#\J	.
=46	=46	=46
8C#\L	8ee\	.
8r	8r	.
8G\ 8A\J	8r	.
8AA\L	[4.cc#\ [4.gg\	.
8r	.	.
8G\ 8A\J	.	.
=47	=47	=47
8E\L	8cc#\] 8gg\L]	.
8r	8ee\	.
8G\ 8A\J	8dd#\J	.
8AA\L	8ee\L	<
8r	8ff#\	.
8G\ 8A\J	8gg\J	.
=48	=48	=48
8D\L	4ff#\	.
8r	.	.
8F#\ 8A\J	8r	.
!	!eee#q/	!.
8AA\L	4fff#\	.
8r	.	.
8F#\ 8A\J	8r	.
=49	=49	=49
8D\L	4aa\	.
8r	.	.
8F#\ 8A\J	8a\ (8aa\	.
8AA\L	4g#\ 4gg#\	.
8r	.	.
8F#\ 8A\J	8a\ 8aa\)	.
=50	=50	=50
(4.GG/ 4.G/	4.b\ 4.dd\ (4.bb\	.
4.FF#/ 4.F#/	4.a\ 4.dd\ 4.aa\	.
=51	=51	=51
4.EE/ 4.E/	4.cc#\ 4.gg\ 4.ccc#\	.
4.DD/) 4.D/	4.dd\ 4.ff#\ 4.ddd\)	.
=52	=52	=52
8DD/ 8D/L	8dd\	.
8r	8r	.
8F#/ 8A/J	8r	.
8AA\L	[4.a\ [4.ff#\	.
8r	.	.
8F#\ 8A\J	.	.
=53	=53	=53
*^	*	*
4.r	8D\L	8a\] 8ff#\L]	.
.	8r	8dd\	.
.	8F#\ 8A\J	8cc#\J	.
8Cn/L	4.Cn\	8dd\L	.
8r	.	8ee\	.
8F#/ 8A/J	.	8ff#\J	.
*v	*v	*	*
=54	=54	=54
8BB\L	8gg\	.
8r	8r	.
8G\ 8B\J	8r	.
8GG\L	4.b\ 4.gg\ 4.bb\	.
8r	.	.
8G\ 8B\J	.	.
=55	=55	=55
8G\L	8bb'\L	.
8r	8aa'\	.
8B\ 8e\J	8gg'\J	.
8E\L	8bb-'\L	.
8r	8aa'\	.
8G\ 8B-\ 8e\J	8gg'\J	.
=56	=56	=56
8AA\L	8ff#\L	.
8r	8ee\	.
8F#\ 8A\ 8d\J	8dd\J	.
8AA\L	8ee\L	.
8r	8r	.
8G\ 8A\J	8ee\J	.
=57	=57	=57
4D\ 4F#\ 4A\	4dd\	.
8r	8r	.
4r	(4dd\	.
8r	8ccn\)	.
=58	=58	=58
*k[f#]	*k[f#]	*k[f#]
8G\L	(4.b\	p
8r	.	.
8B\ 8d\J	.	.
8D\L	4.dd\	.
8r	.	.
8B\ 8d\J	.	.
=59	=59	=59
8G\L	4.bb\)	.
8r	.	.
8B\ 8d\J	.	.
!	!aa#q/	!.
8D\L	4.bb\	.
8r	.	.
8B\ 8d\J	.	.
=60	=60	=60
!	!aa#q/	!.
8G\L	8bb\	.
8r	8r	.
8B\ 8d\J	8r	.
8D\L	[4.b\ [4.dd\ [4.bb\	.
8r	.	.
8B\ 8d\J	.	.
=61	=61	=61
8G\L	4.b\] 4.dd\] 4.bb\]	.
8r	.	.
8B\ 8d\J	.	.
8D\L	4aa\	.
8r	.	.
8B\ 8d\J	8gg\	.
=62	=62	=62
8A\L	(4.ff#\	.
8r	.	.
8c\ 8d\J	.	.
8D\L	4.ee\	.
8r	.	.
8c\ 8d\J	.	.
=63	=63	=63
8A\L	4.cc\	.
8r	.	.
8c\ 8d\J	.	.
8D\L	4.ee\)	.
8r	.	.
8c\ 8d\J	.	.
=64	=64	=64
8G\L	[2.b\	.
8r	.	.
8B\ 8d\J	.	.
8D\L	.	.
8r	.	.
8B\ 8d\J	.	.
=65	=65	=65
8G\L	4.b\]	.
8r	.	.
8B\ 8d\J	.	.
8D\L	(4dd\	.
8r	.	.
8B\ 8d\J	8cc#\)	.
=66	=66	=66
8A\L	(4.ccn\	.
8r	.	.
8c\ 8d\J	.	.
8D\L	4.dd\	.
8r	.	.
8c\ 8d\J	.	.
=67	=67	=67
8A\L	4.ccc\)	.
8r	.	.
8c\ 8d\J	.	.
!	!(bbq/	!.
8D\L	4.ccc\)	.
8r	.	.
8c\ 8d\J	.	.
=68	=68	=68
!	!(bbq/	!.
8A\L	8ccc\)	.
8r	8r	.
8c\ 8d\J	8r	.
8D\L	[4.cc\ [4.ff#\ [4.ccc\	.
8r	.	.
8c\ 8d\J	.	.
=69	=69	=69
8A\L	4.cc\] 4.ff#\] (4.ccc\]	.
8r	.	.
8c\ 8d\J	.	.
8D\L	4b\ 4bb\	.
8r	.	.
8c\ 8d\J	8a\ 8aa\)	.
=70	=70	=70
8E\L	4.g\ (4.gg\	.
8r	.	.
8G\ 8B\ 8e\J	.	.
8E\L	4f#\ 4ff#\	.
8r	.	.
8G\ 8B\ 8e\J	8g\ 8gg\)	.
=71	=71	=71
8C\L	4.a\ 4.aa\	.
8r	.	.
8A\ 8c\ 8e\J	.	.
8C#\L	4.e/ 4.ee/	.
8r	.	.
8A\ 8c#\ 8e\J	.	.
=72	=72	=72
8D\L	[2.a\ [2.aa\	.
8r	.	.
8F#\ 8A\ 8d\J	.	.
8AA\L	.	.
8r	.	.
8F#\ 8A\ 8d\J	.	.
=73	=73	=73
8FF#\L	4.a\] 4.aa\]	.
8r	.	.
8F#\ 8A\ 8d\J	.	.
8DD/ 8D/L	(4dd\	.
8r	.	.
8F#/ 8A/ 8d/J	8cc\)	.
=74	=74	=74
8G\L	(4.b\	.
8r	.	.
8B\ 8d\J	.	.
8D\L	4.dd\	.
8r	.	.
8B\ 8d\J	.	.
=75	=75	=75
8G\L	4.bb\)	.
8r	.	.
8B\ 8d\J	.	.
!	!aa#q/	!.
8D\L	4.bb\	.
8r	.	.
8B\ 8d\J	.	.
=76	=76	=76
!	!aa#q/	!.
8G\L	8bb\	.
8r	8r	.
8B\ 8d\J	8r	.
8D\L	[4.b\ [4.dd\ [4.bb\	.
8r	.	.
8B\ 8d\J	.	.
=77	=77	=77
8G\L	4.b\] 4.dd\] 4.bb\]	.
8r	.	.
8B\ 8d\J	.	.
8D\L	(4aa\	.
8r	.	.
8B\ 8d\J	8gg\	.
=78	=78	=78
*^	*	*
(8G#/L	4.G#\	4.ff#\	.
8r	.	.	.
8d/ 8e/J	.	.	.
8B/L	4.B\	4.ee\)	.
8r	.	.	.
8d/ 8e/J	.	.	.
=79	=79	=79	=79
8G#/L	4.G#\	(4ffn\	.
8r	.	.	.
8d/ 8e/J	.	8ee\)	.
8E/L)	4.E\	(4ff\	.
8r	.	.	.
8d/J	.	8ee\)	.
*v	*v	*	*
=80	=80	=80
8A\L	[2.cc\ 2.aa\ ([2.ccc\	.
8r	.	.
8c\ 8e\J	.	.
8A\L	.	.
8r	.	.
8c\ 8e\J	.	.
=81	=81	=81
*^	*	*
8c/L	4.c\	4.cc\] 4.aa\ 4.ccc\])	.
8r	.	.	.
8e-/ 8a/J	.	.	.
8c/L	4.c\	(4gg\	.
8r	.	.	.
8e-/ 8a/J	.	8ee-\)	.
=82	=82	=82	=82
8B/L	4.B\	(4.dd\	.
8r	.	.	.
8d/ 8g/J	.	.	.
8B/L	4.B\	4cc#\	.
8r	.	.	.
8d/ 8g/J	.	8dd\	.
=83	=83	=83	=83
8c/L	4.c\	4.ee-\	.
8r	.	.	.
8e-/ 8g/J	.	.	.
8c/L	4.c\	4.gg\)	.
8r	.	.	.
8e-/ 8g/J	.	.	.
=84	=84	=84	=84
8B/L	4.B\	8ddd\	.
8r	.	8r	.
8d/ 8g/J	.	8r	.
8G/L	4.G\	[4.gg\	.
8r	.	.	.
8B/ 8d/J	.	.	.
=85	=85	=85	=85
8E/L	4.E\	4.gg\]	.
8r	.	.	.
8G/ 8c/J	.	.	.
8E-/L	4.E-\	(4ff#\	.
8r	.	.	.
8G/ 8c/J	.	8gg\)	.
=86	=86	=86	=86
8D/L	4.D\	4.b\ (4.bb\	.
8r	.	.	.
8G/ 8B/J	.	.	.
8D/L	4.D\	4.dd\)	.
8r	.	.	.
8G/ 8B/J	.	.	.
=87	=87	=87	=87
8D/L	4.D\	4.a\ (4.aa\	.
8r	.	.	.
8F#/ 8A/J	.	.	.
8D/L	4.D\	4.dd\)	.
8r	.	.	.
8F#/ 8A/J	.	.	.
*v	*v	*	*
=88	=88	=88
*	*^	*
8GG\L	[2.g/ [2.gg/	4r	.
8r	.	.	.
8G\ 8B\J	.	8b\ 8dd\	.
8D\L	.	4b\ 4dd\	.
8r	.	.	.
8G\ 8B\J	.	8b\ 8dd\	.
*	*v	*v	*
=89	=89	=89
4GG/ 4G/	4g/] 4gg/]	.
8r	8b\ 8bb\	f
4r	4b\ 4bb\	.
8r	8b\ 8bb\	.
=90!|:	=90!|:	=90!|:
*>C	*>C	*>C
*	*^	*
4EE/ 4E/	2.bb/	8bb\L	f
.	.	8ee'\ 8gg'\	.
8FF#/ 8F#/	.	8ee'\ 8gg'\J	.
4GG/ 4G/	.	8ee'\ 8gg'\L	.
.	.	8ee'\ 8gg'\	.
8EE/ 8E/	.	8ee'\ 8gg'\J	.
=91	=91	=91	=91
4CC/ 4C/	2.aa#/	8aa#\L	.
.	.	8ee'\ 8gg'\	.
8DD/ 8D/	.	8ee'\ 8gg'\J	.
4EE/ 4E/	.	8ee'\ 8gg'\L	.
.	.	8ee'\ 8gg'\	.
8CC/ 8C/	.	8ee'\ 8gg'\J	.
*	*v	*v	*
=92	=92	=92
8BBB/ 8BB/L	4.ee\ 4.gg\ 4.bb\	.
8EE/	.	.
8GG/J	.	.
4BB/	4.dd#\ 4.ff#\ 4.bb\	.
8BB/	.	.
=93	=93	=93
4.EE/ 4.E/	4.ee\ 4.gg\ 4.bb\	.
4.CC#/ 4.C#/	4.ee\ 4.gg\ 4.bb-\	.
=94	=94	=94
*	*^	*
4DD/ 4D/	2.aa/	8aa\L	.
.	.	8dd'\ 8ffn'\	.
8EE/ 8E/	.	8dd'\ 8ff'\J	.
4FFn/ 4Fn/	.	8dd'\ 8ff'\L	.
.	.	8dd'\ 8ff'\	.
8DD/ 8D/	.	8dd'\ 8ff'\J	.
=95	=95	=95	=95
4BBB-/ 4BB-/	2.gg#/	8gg#\L	.
.	.	8dd'\ 8ffn'\	.
8CC/ 8C/	.	8dd'\ 8ff'\J	.
4DD/ 4D/	.	8dd'\ 8ff'\L	.
.	.	8dd'\ 8ff'\	.
8BBB-/ 8BB-/	.	8dd'\ 8ff'\J	.
*	*v	*v	*
=96	=96	=96
8AAA/ 8AA/L	4.dd\ 4.ffn\ 4.aa\	.
8DD/	.	.
8FFn/J	.	.
4AA/	4.cc#\ 4.ee\ 4.aa\	.
8AA/	.	.
=97	=97	=97
4.DD/ 4.D/	4.dd\ 4.ffn\ 4.aa\	.
4.BBB/ 4.BB/	4.dd\ 4.ff\ 4.aa-\	.
=98	=98	=98
4.CC/ 4.C/	4.cc\ 4.ee-\ 4.gg\	.
4.AA-\ 4.A-\	4.cc\ 4.ee-\ 4.ccc\	.
=99	=99	=99
4.GG/ 4.G/	4.b-\ 4.ee-\ 4.bb-\	.
4.FFn/ 4.Fn/	4.a-\ 4.ee-\ 4.aa-\	.
=100	=100	=100
4.EE-/ 4.E-/	4.b-\ 4.ee-\ 4.gg\	.
4.AA-\ 4.A-\	4.cc\ 4.ee-\	.
=101	=101	=101
4.EE-/ 4.E-/	4.b-\ 4.ee-\ 4.gg\	.
4.AA-\ 4.A-\	4.cc\ 4.ee-\	.
=102	=102	=102
4.EE-/ 4.E-/	4.b-\ 4.ee-\ 4.gg\	.
4.CC/ 4.C/	4.cc\ 4.ee-\	.
=103	=103	=103
4.GG/ 4.G/	4.dd\ 4.bb-\	.
4.EE-/ 4.E-/	4.cc#\ 4.gg\	.
=104	=104	=104
8DD/ 8D/	8dd\ 8ff#\ 8ddd\	.
8r	8r	.
8r	8r	.
[4.DD/ [4.D/	[4.dd\ [4.ddd\	.
=105	=105	=105
4DD/] 4D/]	4dd\] 4ddd\]	.
8DD/ 8D/	8dd\ 8ddd\	.
4DD/ 4D/	4dd\ 4ddd\	.
8DD/ 8D/	8dd\ 8ddd\	.
=106	=106	=106
8DD/ 8D/	8dd\ 8ddd\	.
8r	8r	.
8r	8r	.
[4.DD/ [4.D/	[4.dd\ [4.ddd\	.
=107	=107	=107
4DD/] 4D/]	4dd\] 4ddd\]	.
8DD/ 8D/	8dd\ 8ddd\	.
4DD/ 4D/	4dd\ 4ddd\	.
8DD/ 8D/	8dd\ 8ddd\	.
=108	=108	=108
4DD/ 4D/	4dd\ 4ddd\	.
8r	8r	.
4DD/ 4D/	4dd\ 4ddd\	.
8r	8r	.
=109	=109	=109
4DD/ 4D/	4dd\ 4ddd\	.
8r	8r	.
4DD/ 4D/	4dd\ (4ddd\	.
8r	8cc\ 8ccc\	.
=110	=110	=110
8GG\ 8G\L	4.b\ 4.bb\	ff
8r	.	.
8B\ 8d\J	.	.
8D\L	4.dd\ 4.ddd\)	.
8r	.	.
8B\ 8d\J	.	.
=111	=111	=111
8GG\ 8G\L	4.b\ 4.bb\	.
8r	.	.
8B\ 8d\J	.	.
8D\L	4.b\ 4.bb\	.
8r	.	.
8B\ 8d\J	.	.
=112	=112	=112
8GG\ 8G\L	8b\ 8bb\	.
8r	8r	.
8B\ 8d\J	8r	.
8D\L	[4.b\ [4.bb\	.
8r	.	.
8B\ 8d\J	.	.
=113	=113	=113
8GG\ 8G\L	4.b\] 4.bb\]	.
8r	.	.
8B\ 8d\J	.	.
8D\L	4a\ 4aa\	.
8r	.	.
8B\ 8d\J	8g\ 8gg\	.
=114	=114	=114
8AA\ 8A\L	4.f#\ 4.ff#\	.
8r	.	.
8c\ 8d\J	.	.
8D\L	4.e/ 4.ee/	.
8r	.	.
8c\ 8d\J	.	.
=115	=115	=115
8AA\ 8A\L	4.c/ 4.cc/	.
8r	.	.
8c\ 8d\J	.	.
8D\L	4.e/ 4.ee/	.
8r	.	.
8c\ 8d\J	.	.
=116	=116	=116
8GG\ 8G\L	[2.B/ [2.b/	.
8r	.	.
8B\ 8d\J	.	.
8D\L	.	.
8r	.	.
8B\ 8d\J	.	.
=117	=117	=117
8GG\ 8G\L	4.B/] 4.b/]	.
8r	.	.
8B\ 8d\J	.	.
8D\L	(4d/ 4dd/	.
8r	.	.
8B\ 8d\J	8c#/) 8cc#/	.
=118	=118	=118
8AA\ 8A\L	4.cn/ 4.ccn/	.
8r	.	.
8c\ 8d\J	.	.
8D\L	4.d/ 4.dd/	.
8r	.	.
8c\ 8d\J	.	.
=119	=119	=119
8AA\ 8A\L	4.cc\ 4.ccc\	.
8r	.	.
8c\ 8d\J	.	.
!	!bbq/	!.
8D\L	4.cc\ 4.ccc\	.
8r	.	.
8c\ 8d\J	.	.
=120	=120	=120
!	!bbq/	!.
8AA\ 8A\L	8cc\ 8ccc\	.
8r	8r	.
8c\ 8d\J	8r	.
8D\L	[4.cc\ [4.ccc\	.
8r	.	.
8c\ 8d\J	.	.
=121	=121	=121
8AA\ 8A\L	4.cc\] 4.ccc\]	.
8r	.	.
8c\ 8d\J	.	.
8D\L	4b\ 4bb\	.
8r	.	.
8c\ 8d\J	8a\ 8aa\	.
=122	=122	=122
8E\L	4.g\ 4.gg\	.
8r	.	.
8G\ 8B\ 8e\J	.	.
8E\L	4f#\ (4ff#\	.
8r	.	.
8G\ 8B\ 8e\J	8g\ 8gg\)	.
=123	=123	=123
8C\L	4.a\ 4.aa\	.
8r	.	.
8A\ 8c\ 8e\J	.	.
8C#\L	4.e/ 4.ee/	.
8r	.	.
8A\ 8c#\ 8e\J	.	.
=124	=124	=124
8D\L	[2.a\ [2.aa\	.
8r	.	.
8F#\ 8A\ 8d\J	.	.
8AA\L	.	.
8r	.	.
8F#\ 8A\ 8d\J	.	.
=125	=125	=125
8F#\L	4.a\] 4.aa\]	.
8r	.	.
8A\ 8d\J	.	.
8D\L	4d/ 4dd/	.
8r	.	.
8F#\ 8A\ 8d\J	8c/ 8cc/	.
=126	=126	=126
8GG\ 8G\L	4.B/ 4.b/	.
8r	.	.
8B\ 8d\J	.	.
8D\L	4.d/ 4.dd/	.
8r	.	.
8B\ 8d\J	.	.
=127	=127	=127
8GG\ 8G\L	4.b\ 4.bb\	.
8r	.	.
8B\ 8d\J	.	.
!	!aaq/	!.
8D\L	4.b\ 4.bb\	.
8r	.	.
8B\ 8d\J	.	.
=128	=128	=128
!	!aaq/	!.
8GG\ 8G\L	8b\ 8bb\	.
8r	8r	.
8B\ 8d\J	8r	.
8D\L	[4.b\ [4.bb\	.
8r	.	.
8B\ 8d\J	.	.
=129	=129	=129
8GG\ 8G\L	4.b\] 4.bb\]	.
8r	.	.
8B\ 8d\J	.	.
8D\L	4a\ 4aa\	.
8r	.	.
8B\ 8d\J	8g\ 8gg\	.
=130	=130	=130
*^	*	*
8G#/L	4.G#\	4.f#\ 4.ff#\	.
8r	.	.	.
8d/ 8e/J	.	.	.
8B/L	4.B\	4.e/ 4.ee/	.
8r	.	.	.
8d/ 8e/J	.	.	.
=131	=131	=131	=131
8G#/L	4.G#\	4fn\ (4ffn\	.
8r	.	.	.
8d/ 8e/J	.	8e/ 8ee/)	.
8E/L	4.E\	4f\ (4ff\	.
8r	.	.	.
8d/ 8e/J	.	8e/ 8ee/)	.
*v	*v	*	*
=132	=132	=132
8A\L	[2.cc\ [2.ccc\	.
8r	.	.
8c\ 8e\J	.	.
8A\L	.	.
8r	.	.
8c\ 8e\J	.	.
=133	=133	=133
8c\L	4.cc\] 4.ccc\]	.
8r	.	.
8e-\ 8a\J	.	.
8c\L	4g\ 4gg\	.
8r	.	.
8e-\ 8a\J	8e-/ 8ee-/	.
=134	=134	=134
*^	*	*
8B/L	4.B\	4.d/ 4.dd/	.
8r	.	.	.
8d/ 8g/J	.	.	.
8B/L	4.B\	4c#/ 4cc#/	.
8r	.	.	.
8d/ 8g/J	.	8d/ 8dd/	.
=135	=135	=135	=135
8c/L	4.c\	4.e-/ 4.ee-/	.
8r	.	.	.
8e-/ 8g/J	.	.	.
8c/L	4.c\	4.g\ 4.gg\	.
8r	.	.	.
8e-/ 8g/J	.	.	.
=136	=136	=136	=136
8B/L	4.B\	8dd\ 8ddd\	.
8r	.	8r	.
8d/ 8g/J	.	8r	.
8G/L	4.G\	[4.g\ [4.gg\	.
8r	.	.	.
8B/ 8d/J	.	.	.
=137	=137	=137	=137
8E/L	4.E\	4.g\] 4.gg\]	.
8r	.	.	.
8G/ 8c/J	.	.	.
8E-/L	4.E-\	4f#\ (4ff#\	.
8r	.	.	.
8G/ 8c/J	.	8g\ 8gg\)	.
=138	=138	=138	=138
8D/L	4.D\	4.b\ 4.bb\	.
8r	.	.	.
8G/ 8B/J	.	.	.
8D/L	4.D\	4.dd\	.
8r	.	.	.
8G/ 8B/J	.	.	.
=139	=139	=139	=139
8D/L	4.D\	4.a\ 4.aa\	.
8r	.	.	.
8c/ 8d/J	.	.	.
8D/L	4.D\	4.dd\	.
8r	.	.	.
8c/ 8d/J	.	.	.
*v	*v	*	*
=140	=140	=140
*>C1	*>C1	*>C1
8G\L	[2.g\ [2.gg\	.
8r	.	.
8B\ 8d\J	.	.
8D\L	.	.
8r	.	.
8B\ 8d\J	.	.
=141	=141	=141
4G\ 4B\ 4d\	4g\] 4gg\]	.
8r	8b\ 8bb\	.
4r	4b\ 4bb\	.
8r	8b\ 8bb\	.
=142:|!	=142:|!	=142:|!
*>C2	*>C2	*>C2
8G\L	[2.g\ [2.gg\	.
8r	.	.
8B\ 8d\J	.	.
8D\L	.	.
8r	.	.
8B\ 8d\J	.	.
=143	=143	=143
4G\ 4B\ 4d\	4g\] 4gg\]	.
8r	8r	.
4GG/ 4G/	4g\ 4b\ 4gg\	.
8r	8r	.
==	==	==
*-	*-	*-
!!!ENC: Craig Stuart Sapp
!!!END: 2006/06/13/
